packages/bezier-icons/icons/browser-edge.svg

<svg width="24" height="24" viewBox="0 0 24 24" fill="none" xmlns="http://www.w3.org/2000/svg">
<path fill-rule="evenodd" clip-rule="evenodd" d="M21.9745 9.81151C21.5494 5.31864 17.1367 2 12.0076 2C7.43741 2 3.58356 5.06374 2.38567 9.24911C2.78214 8.72518 3.20827 8.31283 3.6058 7.99438C5.26265 6.66692 7.55039 6.06639 9.57652 6.4272C12.015 6.86145 14.1266 8.57196 14.7116 10.5872C15.065 11.8045 14.8235 12.978 14.0341 13.9527C13.8417 14.1907 13.8925 14.5441 14.1428 14.7203C15.9956 16.0248 20.0775 15.4338 21.453 12.7086C21.9042 11.8158 22.0687 10.8075 21.9745 9.81151ZM7.13341 14.329C7.3011 13.0591 7.93906 11.8457 8.93041 10.9122C9.65169 10.2333 10.4986 9.77191 11.2909 9.61056C11.5479 9.53395 11.8222 9.49653 12.1068 9.50747C12.6992 9.53042 13.2425 9.76379 13.6619 10.1348C13.3654 9.5629 12.9152 9.01745 12.3472 8.55319C11.5158 7.87322 10.5089 7.41285 9.43492 7.22185C8.02132 6.96978 5.88009 7.20632 4.11027 8.62415C3.13727 9.40368 2.43718 10.4307 2.03506 11.6536C2.01388 11.7179 2.00223 11.7853 2.00117 11.8531V11.8542C1.9182 17.3758 6.44779 21.9951 11.9701 22.0152C12.0686 22.0152 12.1664 22.0141 12.2642 22.0117C10.8319 21.6551 9.82468 20.9712 9.14612 20.316C7.58954 18.8127 6.8372 16.5744 7.13341 14.329ZM9.50567 12.0077C9.50567 15.9865 15.1152 19.4983 20.042 16.8787C20.3396 16.7209 20.6542 17.0594 20.4745 17.344C19.7977 18.4158 18.9228 19.35 17.9018 20.0953C16.1486 21.3758 13.8842 21.7645 11.8375 21.0393C10.8928 20.7046 10.2001 20.2121 9.70691 19.7359C8.33321 18.4091 7.67054 16.4278 7.93356 14.4345C8.07654 13.3486 8.62729 12.3064 9.48379 11.5C9.50968 11.4756 9.53607 11.452 9.56234 11.4284C9.56723 11.424 9.57211 11.4197 9.57699 11.4153C9.53109 11.6052 9.50567 11.8036 9.50567 12.0077Z" fill="#313234"/>
</svg>

<svg xmlns="http://www.w3.org/2000/svg" width="24" height="24" fill="none" viewBox="0 0 24 24"><path fill="#313234" fill-rule="evenodd" d="M21.975 9.812C21.549 5.319 17.136 2 12.007 2c-4.57 0-8.424 3.064-9.622 7.25a7 7 0 0 1 1.22-1.256c1.657-1.327 3.944-1.928 5.97-1.567 2.439.434 4.55 2.145 5.136 4.16.353 1.218.111 2.391-.678 3.366a.53.53 0 0 0 .109.767c1.853 1.305 5.935.714 7.31-2.011.451-.893.616-1.902.521-2.897M7.132 14.329c.168-1.27.806-2.483 1.797-3.417.722-.679 1.569-1.14 2.36-1.301q.388-.117.817-.104a2.5 2.5 0 0 1 1.555.628 5.1 5.1 0 0 0-1.315-1.582 6.37 6.37 0 0 0-2.912-1.331C8.02 6.97 5.88 7.206 4.11 8.624c-.973.78-1.673 1.807-2.075 3.03a.7.7 0 0 0-.034.2c-.083 5.522 4.447 10.141 9.97 10.161q.146 0 .293-.003c-1.432-.357-2.44-1.04-3.118-1.696-1.556-1.503-2.309-3.742-2.013-5.987m2.373-2.321c0 3.979 5.61 7.49 10.536 4.87.298-.157.612.181.432.466a10.1 10.1 0 0 1-2.572 2.751c-1.753 1.28-4.018 1.67-6.065.944a5.85 5.85 0 0 1-2.13-1.303c-1.374-1.327-2.036-3.308-1.773-5.302.143-1.085.693-2.128 1.55-2.934l.078-.072.015-.013a2.5 2.5 0 0 0-.071.593" clip-rule="evenodd"/></svg>
